X:052 
T:Dusty Miller, The 
S:Seamus Ennis
F:file ID: cre.5/052dusty
B:CRE5.062 (Lus na mBanrÃÂÃÂÃÂÃÂ­on)
N:Titles refer to the plant, not a person 
(Gaelic title = "the queen's herb")
Q:160
M:9/8
R:slip jig
K:D
A2A A2G A2G|A2A A2G B2d|
A2A A2G A2G|B2G G2G B2d :|
A2D D3 A2d|A2D D3 B2d|
A2D A2D G2A|B2B B2A B2d :|

%%%

